logos/chai.svg

<?xml version="1.0" encoding="UTF-8" standalone="no" ?>
<svg width="256px" height="296px" viewBox="0 0 256 296" version="1.1" xmlns="http://www.w3.org/2000/svg" xmlns:xlink="http://www.w3.org/1999/xlink" preserveAspectRatio="xMidYMid">
    <defs>
        <linearGradient x1="50%" y1="45.2268017%" x2="50%" y2="100%" id="linearGradient-1">
            <stop stop-color="#F7F6F3" offset="0%"></stop>
            <stop stop-color="#FEF6D5" offset="100%"></stop>
        </linearGradient>
    </defs>
    <g>
        <path d="M11.071,215.711 L127.997,283.22 L244.929,215.711 L244.929,80.696 L127.997,13.189 L11.071,80.696 L11.071,215.711 L11.071,215.711 Z M127.997,296 L0,222.1 L0,74.306 L127.997,0.404 L256,74.306 L256,222.1 L127.997,296 L127.997,296 Z" fill="#A1070C"></path>
        <path d="M9.579,79.833 L128,11.463 L246.421,79.833 L246.421,216.574 L128,284.944 L9.579,216.574 L9.579,79.833" fill="url(#linearGradient-1)"></path>
        <path d="M182.332279,98.173325 C182.332279,103.544738 181.272147,108.880733 179.151853,114.18147 C177.031558,119.482206 174.186872,124.394148 170.617709,128.917444 C167.048547,133.440739 162.931703,137.398563 158.267055,140.791034 C153.602406,144.183506 148.76114,146.621808 143.743109,148.106014 L141.516811,144.395517 C144.485223,142.911311 147.206227,141.003074 149.679904,138.67075 C152.153581,136.338426 154.273844,133.705766 156.040756,130.772692 C157.807669,127.839618 159.168171,124.729899 160.122303,121.443442 C161.076436,118.156986 161.553495,114.817572 161.553495,111.4251 C161.553495,107.537893 160.988092,103.862771 159.857268,100.399623 C158.726444,96.9364753 157.065571,93.9151008 154.8746,91.335409 C152.683629,88.7557172 149.980294,86.7237986 146.764514,85.2395924 C143.548734,83.7553861 139.855942,83.0132941 135.68603,83.0132941 C130.597323,83.0132941 125.932744,84.0027501 121.692155,85.9816918 C117.451566,87.9606334 113.635093,90.6286309 110.242621,93.985764 C106.85015,97.3428972 103.899451,101.194708 101.390435,105.541312 C98.8814199,109.887916 96.7964948,114.446481 95.1355974,119.217144 C93.4746999,123.987807 92.220211,128.811405 91.3720932,133.688083 C90.5239753,138.56476 90.0999228,143.158663 90.0999228,147.469929 C90.0999228,151.851871 90.559313,156.375099 91.4781074,161.039747 C92.3969017,165.704395 93.7397349,170.298298 95.5066471,174.821593 C97.2735593,179.344888 99.4644975,183.620752 102.079528,187.649312 C104.694558,191.677871 107.715932,195.211643 111.143742,198.250732 C114.571552,201.289821 118.388025,203.710454 122.593276,205.512705 C126.798527,207.314955 131.374761,208.216067 136.322115,208.216067 C139.714586,208.216067 143.018663,207.756677 146.234443,206.837882 C149.450223,205.919088 152.542273,204.682268 155.510685,203.127385 C158.479098,201.572502 161.288446,199.734941 163.938815,197.614647 C166.589183,195.494352 169.045154,193.197401 171.306802,190.723723 L174.80527,194.116178 C171.695505,198.215414 168.002714,202.155569 163.726786,205.936761 C159.450859,209.717954 154.839287,213.075036 149.891933,216.008111 C144.944579,218.941185 139.767603,221.273474 134.360852,223.005048 C128.954101,224.736622 123.600437,225.602396 118.299701,225.602396 C113.140317,225.602396 108.281381,224.701284 103.722748,222.899034 C99.1641142,221.096783 94.9765951,218.658481 91.1600648,215.584054 C87.3435344,212.509627 83.933445,208.90518 80.9296943,204.770605 C77.9259435,200.636031 75.3816281,196.236485 73.2966717,191.571837 C71.2117153,186.907189 69.6215182,182.10126 68.5260326,177.153906 C67.4305471,172.206551 66.8828125,167.365285 66.8828125,162.62996 C66.8828125,155.774341 68.0312882,148.724467 70.3282741,141.480127 C72.6252599,134.235787 75.7879853,127.203581 79.8165452,120.3833 C83.845105,113.563019 88.5980275,107.113886 94.0754553,101.035708 C99.5528832,94.9575305 105.454281,89.6568734 111.779827,85.1335782 C118.105373,80.6102829 124.713525,77.023505 131.604483,74.3731367 C138.49544,71.7227684 145.368626,70.3976041 152.224245,70.3976041 C156.464834,70.3976041 160.422658,71.0160141 164.097836,72.2528526 C167.773013,73.4896912 170.953407,75.2742457 173.639114,77.6065698 C176.324821,79.9388939 178.445083,82.8365865 179.999966,86.2997344 C181.554849,89.7628823 182.332279,93.7207063 182.332279,98.173325 L182.332279,98.173325 Z" fill="#A1070C"></path>
    </g>
</svg>

<svg preserveAspectRatio="xMidYMid" viewBox="0 0 256 296" xmlns="http://www.w3.org/2000/svg">
  <defs>
    <linearGradient id="chai_svg__a" x1="50%" x2="50%" y1="45.227%" y2="100%">
      <stop offset="0%" stop-color="#F7F6F3"/>
      <stop offset="100%" stop-color="#FEF6D5"/>
    </linearGradient>
  </defs>
  <path fill="#A1070C" d="m11.071 215.711 116.926 67.509 116.932-67.509V80.696L127.997 13.189 11.071 80.696v135.015ZM127.997 296 0 222.1V74.306L127.997.404 256 74.306V222.1L127.997 296Z"/>
  <path fill="url(#chai_svg__a)" d="M9.579 79.833 128 11.463l118.421 68.37v136.741L128 284.944 9.579 216.574V79.833"/>
  <path fill="#A1070C" d="M182.332 98.173c0 5.372-1.06 10.708-3.18 16.008a59.125 59.125 0 0 1-8.534 14.736 62.439 62.439 0 0 1-12.35 11.874c-4.666 3.393-9.507 5.83-14.525 7.315l-2.226-3.71a34.048 34.048 0 0 0 8.163-5.725 37.143 37.143 0 0 0 6.36-7.898 39.166 39.166 0 0 0 4.082-9.33 35.758 35.758 0 0 0 1.431-10.018c0-3.887-.565-7.562-1.696-11.025-1.13-3.464-2.791-6.485-4.982-9.065-2.191-2.58-4.895-4.611-8.11-6.095-3.216-1.485-6.91-2.227-11.079-2.227-5.089 0-9.753.99-13.994 2.969-4.24 1.979-8.057 4.647-11.45 8.004-3.392 3.357-6.343 7.209-8.852 11.555a79.725 79.725 0 0 0-6.254 13.676 91.782 91.782 0 0 0-3.764 14.471c-.848 4.877-1.272 9.47-1.272 13.782 0 4.382.46 8.905 1.378 13.57a80.657 80.657 0 0 0 4.029 13.782 70.818 70.818 0 0 0 6.573 12.827c2.615 4.029 5.636 7.563 9.064 10.602a42.219 42.219 0 0 0 11.45 7.262c4.205 1.802 8.78 2.703 13.728 2.703 3.393 0 6.697-.46 9.912-1.378a48.88 48.88 0 0 0 9.277-3.71 52.352 52.352 0 0 0 8.428-5.513 64.885 64.885 0 0 0 7.368-6.891l3.498 3.392c-3.11 4.1-6.802 8.04-11.078 11.82a90.514 90.514 0 0 1-13.835 10.072 75.56 75.56 0 0 1-15.531 6.997c-5.407 1.732-10.76 2.597-16.061 2.597-5.16 0-10.019-.9-14.577-2.703a48.106 48.106 0 0 1-12.563-7.315c-3.816-3.074-7.227-6.679-10.23-10.813a73.252 73.252 0 0 1-7.633-13.2 74.963 74.963 0 0 1-4.771-14.417c-1.095-4.947-1.643-9.789-1.643-14.524 0-6.856 1.148-13.906 3.445-21.15 2.297-7.244 5.46-14.276 9.489-21.097 4.028-6.82 8.781-13.27 14.258-19.347 5.478-6.078 11.38-11.38 17.705-15.902 6.325-4.524 12.934-8.11 19.824-10.76 6.891-2.651 13.765-3.976 20.62-3.976 4.24 0 8.199.618 11.874 1.855 3.675 1.237 6.855 3.021 9.541 5.354 2.686 2.332 4.806 5.23 6.361 8.693 1.555 3.463 2.332 7.42 2.332 11.873Z"/>
</svg>
